X:330
T: Peggy Bawne Hornpipe
N: O'Farrell's Pocket Companion v.4 (Sky ed. p.145)
M: 2/4
L: 1/8
Q: 280
R: hornpipe
K: D
AG| FAd2| FAd2| cega | gecA| FAd2| Bgfe| d2d2| c2AG|
FAd2| FAd2| cega | gecA| FdBg| fdec| d2 d2 | d2 :|
cd| eafd| cBA^G| A2AB| ABcd| eafd| cBA^G| Adfa|
gecA| FAd2| FAd2| cega | gecA| FdBg| fdec| d2 d2| d2 :|
